X:1
T:Whitby Pier
C:trad. arr. Robin Garside
Z:ABC version by Jack Campin
M:6/8
L:1/8
Q:3/8=120
K:D
A|"D"F2A d2e|   fed    cBA|"G" BdB "D" AFD|   FAF "A"E2
A|"D"F2A d2e|   fed    cBA|"Em"Bgf "A" edc|"D"d3     d2:|
g|"D"faf d2f|"G"gbg    e2g|"D" fed     faf|"A"ecA    A2
g|"D"faf d2f|"G"bag "D"fed|"Em"Bgf "A7"edc|"D"d3     d2:|